X: 3
T: While shepherds watched their flocks at night (harmony)
M:4/4
K:C
L:1/4
|: (E/F/) | E G GF | E (C/D/) C (C/D/) | E E E (D/C/) |
C B, z (G/A/) | B G D D | B, (C/B,/) C (A/G/) |
F E C C | F E z G | E (C/D/) C (B,/C/) | C3 :|
N: Derived from above using 'split.cpp'
N: Chords removed w/search & replace

